svgs/thin/face-swear.svg

<svg xmlns="http://www.w3.org/2000/svg" viewBox="0 0 640 512"><!--! Font Awesome Pro 6.4.0 by @fontawesome - https://fontawesome.com License - https://fontawesome.com/license (Commercial License) Copyright 2023 Fonticons, Inc. --><path d="M557.9 224C542.2 106.6 441.7 16 320 16S97.8 106.6 82.1 224H66C81.7 97.7 189.5 0 320 0S558.3 97.7 574 224H557.9zM224.4 176a16 16 0 1 1 32 0 16 16 0 1 1 -32 0zm176-16a16 16 0 1 1 0 32 16 16 0 1 1 0-32zm-216-50.5c1.4-4.2 5.9-6.5 10.1-5.1l96 32c4.2 1.4 6.5 5.9 5.1 10.1s-5.9 6.5-10.1 5.1l-96-32c-4.2-1.4-6.5-5.9-5.1-10.1zm271.2 0c1.4 4.2-.9 8.7-5.1 10.1l-96 32c-4.2 1.4-8.7-.9-10.1-5.1s.9-8.7 5.1-10.1l96-32c4.2-1.4 8.7 .9 10.1 5.1zM16 320V448c0 26.5 21.5 48 48 48H576c26.5 0 48-21.5 48-48V320c0-26.5-21.5-48-48-48H64c-26.5 0-48 21.5-48 48zM0 320c0-35.3 28.7-64 64-64H576c35.3 0 64 28.7 64 64V448c0 35.3-28.7 64-64 64H64c-35.3 0-64-28.7-64-64V320zM408 432H384v24c0 4.4-3.6 8-8 8s-8-3.6-8-8V432H304v24c0 4.4-3.6 8-8 8s-8-3.6-8-8V432H264c-4.4 0-8-3.6-8-8s3.6-8 8-8h24V352H264c-4.4 0-8-3.6-8-8s3.6-8 8-8h24V312c0-4.4 3.6-8 8-8s8 3.6 8 8v24h64V312c0-4.4 3.6-8 8-8s8 3.6 8 8v24h24c4.4 0 8 3.6 8 8s-3.6 8-8 8H384v64h24c4.4 0 8 3.6 8 8s-3.6 8-8 8zm-40-80H304v64h64V352zm196.4-46.7c3.7 2.5 4.7 7.4 2.2 11.1l-96 144c-2.5 3.7-7.4 4.7-11.1 2.2s-4.7-7.4-2.2-11.1l96-144c2.5-3.7 7.4-4.7 11.1-2.2zM472 320a8 8 0 1 0 0 16 8 8 0 1 0 0-16zm0-16a24 24 0 1 1 0 48 24 24 0 1 1 0-48zm72 136a8 8 0 1 0 16 0 8 8 0 1 0 -16 0zm-16 0a24 24 0 1 1 48 0 24 24 0 1 1 -48 0zM208 304c4.4 0 8 3.6 8 8v80c0 4.4-3.6 8-8 8s-8-3.6-8-8V312c0-4.4 3.6-8 8-8zm0 144a8 8 0 1 0 0-16 8 8 0 1 0 0 16zm0-32a24 24 0 1 1 0 48 24 24 0 1 1 0-48zM120 312v8.5c9 .8 17.5 2.5 23.9 4.1c4.3 1.1 6.9 5.4 5.8 9.7s-5.4 6.9-9.7 5.8c-10.5-2.6-25.5-5.1-38.1-3.8c-6.3 .7-11.4 2.2-15 4.6c-3.3 2.2-5.7 5.3-6.6 10.2c-.7 3.9-.2 6.4 .8 8.2c1 2 2.8 3.9 5.9 5.8c6.5 4.1 16 6.8 27.3 10l0 0 0 0 0 0c10.5 3 22.8 6.4 31.7 12.5c4.6 3.2 8.8 7.3 11.4 12.8c2.6 5.6 3.2 11.9 1.9 18.9c-2 10.8-7.7 18.5-15.8 23c-7.3 4.2-16.1 5.5-24.5 5.5v8c0 4.4-3.6 8-8 8s-8-3.6-8-8v-9.3c-12.8-2-25.2-5.7-33.5-8.3c-4.2-1.3-6.6-5.8-5.3-10s5.8-6.6 10-5.3c11.6 3.6 28.9 8.7 43.7 8.9c7.4 .1 13.4-1 17.6-3.4c3.8-2.2 6.8-5.6 7.9-12c.8-4.3 .3-7.2-.7-9.3c-1-2.2-2.9-4.3-5.9-6.3c-6.3-4.3-15.8-7.2-27-10.3l-1.5-.4c-10.1-2.9-21.6-6.1-30.1-11.5c-4.6-2.9-8.9-6.8-11.6-12.1c-2.7-5.4-3.5-11.6-2.2-18.3c1.7-9.3 6.7-16.1 13.5-20.6c6.5-4.4 14.5-6.4 22.2-7.2c1.2-.1 2.5-.2 3.7-.3V312c0-4.4 3.6-8 8-8s8 3.6 8 8z"/></svg>

<svg xmlns="http://www.w3.org/2000/svg" viewBox="0 0 640 512"><!--! Font Awesome Pro 6.3.0 by @fontawesome - https://fontawesome.com License - https://fontawesome.com/license (Commercial License) Copyright 2023 Fonticons, Inc. --><path d="M557.9 224C542.2 106.6 441.7 16 320 16C198.3 16 97.76 106.6 82.11 224H65.98C81.73 97.72 189.5 0 320 0C450.5 0 558.3 97.72 574 224H557.9zM256.4 176C256.4 184.8 249.2 192 240.4 192C231.5 192 224.4 184.8 224.4 176C224.4 167.2 231.5 160 240.4 160C249.2 160 256.4 167.2 256.4 176zM384.4 176C384.4 167.2 391.5 160 400.4 160C409.2 160 416.4 167.2 416.4 176C416.4 184.8 409.2 192 400.4 192C391.5 192 384.4 184.8 384.4 176zM184.4 109.5C185.8 105.3 190.3 103 194.5 104.4L290.5 136.4C294.7 137.8 296.1 142.3 295.6 146.5C294.2 150.7 289.7 152.1 285.5 151.6L189.5 119.6C185.3 118.2 183 113.7 184.4 109.5V109.5zM455.6 109.5C456.1 113.7 454.7 118.2 450.5 119.6L354.5 151.6C350.3 152.1 345.8 150.7 344.4 146.5C343 142.3 345.3 137.8 349.5 136.4L445.5 104.4C449.7 103 454.2 105.3 455.6 109.5H455.6zM384 432V456C384 460.4 380.4 464 376 464C371.6 464 368 460.4 368 456V432H304V456C304 460.4 300.4 464 296 464C291.6 464 288 460.4 288 456V432H264C259.6 432 256 428.4 256 424C256 419.6 259.6 416 264 416H288V352H264C259.6 352 256 348.4 256 344C256 339.6 259.6 336 264 336H288V312C288 307.6 291.6 304 296 304C300.4 304 304 307.6 304 312V336H368V312C368 307.6 371.6 304 376 304C380.4 304 384 307.6 384 312V336H408C412.4 336 416 339.6 416 344C416 348.4 412.4 352 408 352H384V416H408C412.4 416 416 419.6 416 424C416 428.4 412.4 432 408 432H384zM304 352V416H368V352H304zM564.4 305.3C568.1 307.8 569.1 312.8 566.7 316.4L470.7 460.4C468.2 464.1 463.2 465.1 459.6 462.7C455.9 460.2 454.9 455.2 457.3 451.6L553.3 307.6C555.8 303.9 560.8 302.9 564.4 305.3zM448 328C448 314.7 458.7 304 472 304C485.3 304 496 314.7 496 328C496 341.3 485.3 352 472 352C458.7 352 448 341.3 448 328zM472 320C467.6 320 464 323.6 464 328C464 332.4 467.6 336 472 336C476.4 336 480 332.4 480 328C480 323.6 476.4 320 472 320zM576 440C576 453.3 565.3 464 552 464C538.7 464 528 453.3 528 440C528 426.7 538.7 416 552 416C565.3 416 576 426.7 576 440zM552 448C556.4 448 560 444.4 560 440C560 435.6 556.4 432 552 432C547.6 432 544 435.6 544 440C544 444.4 547.6 448 552 448zM208 304C212.4 304 216 307.6 216 312V392C216 396.4 212.4 400 208 400C203.6 400 200 396.4 200 392V312C200 307.6 203.6 304 208 304zM184 440C184 426.7 194.7 416 208 416C221.3 416 232 426.7 232 440C232 453.3 221.3 464 208 464C194.7 464 184 453.3 184 440zM208 448C212.4 448 216 444.4 216 440C216 435.6 212.4 432 208 432C203.6 432 200 435.6 200 440C200 444.4 203.6 448 208 448zM120 320.5C128.1 321.3 137.5 322.1 143.9 324.6C148.2 325.7 150.8 330 149.8 334.3C148.7 338.6 144.4 341.2 140.1 340.1C129.6 337.5 114.6 335 101.9 336.4C95.64 337 90.56 338.6 86.96 340.1C83.62 343.2 81.27 346.3 80.38 351.2C79.67 355 80.2 357.6 81.13 359.4C82.12 361.4 83.94 363.3 87 365.2C93.47 369.3 103 372 114.3 375.2L114.4 375.3C124.9 378.2 137.1 381.7 146 387.8C150.7 390.9 154.8 395.1 157.4 400.6C160 406.2 160.6 412.5 159.4 419.5C157.4 430.3 151.7 437.1 143.6 442.5C136.2 446.7 127.5 447.1 119.1 448V456C119.1 460.4 115.5 464 111.1 464C106.7 464 103.1 460.4 103.1 456V446.7C90.26 444.7 77.88 440.9 69.62 438.4C65.4 437 63.05 432.6 64.36 428.3C65.68 424.1 70.16 421.8 74.38 423.1C86.02 426.7 103.2 431.8 118.1 431.1C125.5 432.1 131.5 430.1 135.7 428.6C139.5 426.4 142.4 422.1 143.6 416.6C144.4 412.3 143.9 409.4 142.9 407.3C141.9 405.1 140 403 137 400.1C130.7 396.7 121.2 393.8 109.1 390.6L108.5 390.2C98.42 387.4 86.91 384.1 78.42 378.7C73.8 375.8 69.54 371.9 66.85 366.6C64.12 361.2 63.4 355 64.64 348.3C66.36 338.1 71.3 332.2 78.09 327.7C84.64 323.3 92.55 321.3 100.3 320.5C101.5 320.3 102.7 320.2 103.1 320.2V311.1C103.1 307.6 107.6 303.1 111.1 303.1C116.4 303.1 119.1 307.6 119.1 311.1L120 320.5zM0 320C0 284.7 28.65 256 64 256H576C611.3 256 640 284.7 640 320V448C640 483.3 611.3 512 576 512H64C28.65 512 0 483.3 0 448V320zM16 448C16 474.5 37.49 496 64 496H576C602.5 496 624 474.5 624 448V320C624 293.5 602.5 272 576 272H64C37.49 272 16 293.5 16 320V448z"/></svg>
